!!!COM: Claude Goudimel
!!!OMD: Psalm 42: Ainsi qu'on oit le cerf
**kern	**kern	**kern	**kern
*part4	*part3	*part2	*part1
*staff4	*staff3	*staff2	*staff1
*clefF4	*clefGv2	*clefG2	*clefG2
*k[b-]	*k[b-]	*k[b-]	*k[b-]
!!LO:TX:omd:t=
*M4/4	*M4/4	*M4/4	*M4/4
=1	=1	=1	=1
2F	2c	2f	2f
4C	4c	4e	4g
[4F	[4c	[4f	[4a
=2	=2	=2	=2
4F]	4c]	4f]	4a]
4C	4c	4e	4g
4D	4A	4d	4f
4AA	4A	4c	4e
=3	=3	=3	=3
2BB-X	2F	2B-	2d
2FF	2F	2A	2c
=4	=4	=4	=4
2r	2r	2r	2r
2F	2A	2c	2f
=5	=5	=5	=5
4C	4c	4e	4g
2F	2c	2f	2a
4BB-X	4d	4f	4b-X
=6	=6	=6	=6
2F	2c	2f	2a
2C	2c	2e	2g
=7	=7	=7	=7
2FF	2c	2f	2f
2r	2r	2r	2r
=8	=8	=8	=8
2F	2c	2f	2f
4C	4c	4e	4g
[4F	[4c	[4f	[4a
=9	=9	=9	=9
4F]	4c]	4f]	4a]
4C	4c	4e	4g
4D	4A	4d	4f
4AA	4A	4c	4e
=10	=10	=10	=10
2BB-X	2F	2B-	2d
2FF	2F	2A	2c
=11	=11	=11	=11
2r	2r	2r	2r
2F	2A	2c	2f
=12	=12	=12	=12
4C	4c	4e	4g
2F	2c	2f	2a
4BB-X	4d	4f	4b-X
=13	=13	=13	=13
2F	2c	2f	2a
2C	2c	2e	2g
=14	=14	=14	=14
2FF	2c	2f	2f
2r	2r	2r	2r
=15	=15	=15	=15
2F	2c	2f	2a
4F	4c	4f	4a
[4F	[4A	[4f	[4cc
=16	=16	=16	=16
4F]	4A]	4f]	4cc]
4BB-X	4d	4f	4b-X
4F	4c	4f	4a
4C	4c	4e	4g
=17	=17	=17	=17
2F	2c	2f	2a
2r	2r	2r	2r
=18	=18	=18	=18
2F	2A	2f	2cc
4F	4A	4f	4cc
[4BB-X	[4B-X	[4f	[4dd
=19	=19	=19	=19
4BB-]	4B-]	4f]	4dd]
4FF	4A	4f	4cc
4BB-X	4d	4f	4b-X
4FF	4c	4f	4a
=20	=20	=20	=20
2C	2c	2e	2g
2r	2r	2r	2r
=21	=21	=21	=21
2F	2c	2f	2a
4C	4e-X	4g	4cc
[4G	[4e-X	[4g	[4b-X
=22	=22	=22	=22
4G]	4e-]	4g]	4b-]
4D	4d	4f	4a
4D	4A	4d	4f
4C	4c	4e	4g
=23	=23	=23	=23
2F	2c	2f	2a
2BB-X	2B-X	2d	2f
=24	=24	=24	=24
2r	2r	2r	2r
2FF	2c	2f	2a
=25	=25	=25	=25
4FF	4c	4f	4a
2BB-X	2F	2d	2b-X
4FF	4F	4c	4a
=26	=26	=26	=26
4C	4E	4c	4g
4D	4F	4B-	2f
2C	2G	2c	.
.	.	.	4e
=27	=27	=27	=27
1FF	1A	1c	1f
==	==	==	==
*-	*-	*-	*-
!!!software: music21 v.9.7.1
!!!software: music21 v.8.3.0
!!!RDF**kern: > = above
!!!RDF**kern: < = below
